X:1
T:Augustan  club.
T:AUGUSTAN    CLUB.
T:Composed by SCOTT  JOPLIN.
T: T H E 
T:WALTZES.
T:Public Domain
T:Public Domain
T:Public Domain
T:Public Domain
C:Scott Joplin
Z:Public Domain
%%score { ( 1 3 ) | ( 2 4 ) }
L:1/8
Q:1/4=100
M:3/4
K:Bb
V:1 treble nm="Piano"
V:3 treble 
V:2 bass 
V:4 bass 
V:1
"^Moderato."!f!"^INTRODUCTION." !//-!B3 b3 | !//-!B3!>(! b3!>)! |{/B} b2 z2 z2 | %3
!>(! !arpeggio![bd'f'b']2!>)! z2 z2 |:!p![Q:1/4=120]"^Tempo di Valse." F6- | F2 G2 F2 | z2 f=egf | %7
 dBGB F2 | d6- | d2 c2 B2 | z2 fac'a | fecA F2 | E6- | E2 F2 E2 | z2 fac'a | fecA F2 | c6- | %17
 c2 B2 A2 | z2 Bcde | fdbf d2 | F6- | F2 G2 F2 | z2 f=egf | dBGB F2 |!<(! =B6- | B2 d2 f2 | %26
 z2 ^fg_ag | c'ge'c'!<)!!>(! g2!>)! |!p! B6- | B2 =E2 G2 | z2 dedB | defg f2 | G6- | G2 A2 c2 |1 %34
 z2 (de=ef) | b2 z2 z2 :|2!<(! z [Bd][Bd][df][df][db] | [db]2 z2!<)! b2 |:!f! (c'babab | agfedc) | %40
 (dFGABc | defg f2) | [Aea][Aea] [Aea]3 [Beb] | [cec'][cec'] [cec']3 [^c=e^c'] | %44
 [dfd'][dfd'] [dfd']2 [fd'f']2- | [fd'f']4 b2 | (c'babab | agfedc) | (dFGABc | defg f2) | %50
 (f=efdAf | =eAagfe | d2){/^c'} d'2{/c'} d'2 | !>![dfad']2 z2 b2 | (c'babab | agfedc) | (dFGABc | %57
 defg f2) | [Aea][Aea] [Aea]3 [Beb] | [cec'][cec'] [cec']3 [^c=e^c'] | %60
 [dfd'][dfd'] [dfd']2 [fd'f']2- | [fd'f']3 (d'bf) | (^fgagc'e') | [gg']6 | (g'f'd'bgf) | %65
 [fd']4 [fd']2 | (d'=egbd'g) | (c'_efac'f) |1 [db]6- | [db]2{/=e} f2 b2 :|2 [db]6- | %71
!>(! [db]2 (B2 G2)!>)! |:!p! D6- | D3 DGB | [DGBd]4 [DGBd]2- | [DGBd]3 GBd | [Gceg]6- | %77
 [Gceg]3 [eg][df][ce] | [Bd]4 !arpeggio![GBd]2- | [GBd]2 z [Bd][Ac][GB] | [^FA]6- | %81
 [FA]3 [Ac][GB][^FA] | G4 G2- | G3 (^FGA) |!<(! [GB]6-!<)! |!<(! [GB]3 [GB][GAc][GA^c] | %86
 [^FAd]2!<)! z2 ba |!>(! !>![d^fad']2 z2 z2!>)! |!p! D6- | D3 DGB | [DGBd]4 [DGBd]2- | %91
 [DGBd]3 GBd | [Gceg]6- | [Gceg]3 [eg][df][ce] | [Bd]4 !arpeggio![GBd]2- | [GBd]2 z GBd | %96
 [Gceg]6- | [Gceg]3 [eg][df][ce] | [Bd]4 !arpeggio![GBd]2- | [GBd]2 z bgd | [^Fce]4 [Fcd]2- | %101
 [Fcd]3 cAB |1 G6- | G2 (B2 G2) :|2!<(! G6 | !>![B,D_AB]6!<)! |:!mf! [B,B]6 | [Cc]6 | [F,F]6- | %109
 [F,F]6 | [B,B]6 | [B,B]4 [Cc]2 | [Dd]6- | [Dd]6 | [B,B]6 | [Cc]6 | [F,F]6 |!<(! [G,G]6 | %118
 [A,A]4 [Cc]2 | [Dd]4 [=E=e]2!<)! |!>(! [Ff]6- | [Ff]2!>)! z2 z2 |!mf! [B,B]6 | [Cc]6 | [F,F]6- | %125
 [F,F]6 | [B,B]6 | [B,B]4 [Cc]2 | [Dd]6- | [Dd]6 |!<(! [Geg]6!<)! | [B_db]2 [Ada]2 [Gdg]2 | %132
 [F=df]6 | [F=Be]4 [FBd]2 | [=EG_Bd]6 | [_EFAc]6 |1 [DFB]6- |!>(! [DFB]2 (D2 F2)!>)! :|2 %138
 [DFB]2 [Dd]2 [Ee]2 |!<(! [Ff]2 [Gg]2 [Aa]2!<)! || [Bb]2 [_g_g']2 [ff']2 | [_d_d']2 [Bb]2 [_G_g]2 | %142
 [Ff]2 z2 [Aef]2 | [Bdfb]2 z2 z2 | !arpeggio![dfbd']2 z2 z2 | [Bdfb]2 z2 z2 | !fermata![B,EB]6 || %147
!ff!{/!fermata![B,DB]} !fermata![B,DB]6 |] %148
V:2
 [F,B,D]4 [_A,B,F]2 | [G,B,=E]4 [_G,B,_E]2 | [F,B,D]2 z2 z2 | [B,,,B,,]2 z2 z2 |: %4
!ped! B,,2"^dolce." [F,B,D]2 [F,B,D]2!ped-up! |!ped! F,,2 [F,B,D]2 [F,B,D]2!ped-up! | %6
!ped! B,,2 [F,B,D]2 [F,B,D]2!ped-up! |!ped! F,,2 [F,B,D]2 [F,B,D]2!ped-up! | %8
!ped! B,,2 [F,B,D]2 [F,B,D]2!ped-up! |!ped! F,,2 [F,B,D]2 [F,B,D]2!ped-up! | %10
!ped! C,2 [F,A,E]2 [F,A,E]2!ped-up! |!ped! F,,2 [F,A,E]2 [F,A,E]2!ped-up! | %12
!ped! C,2 [F,A,C]2 [F,A,C]2!ped-up! |!ped! F,,2 [F,A,C]2 [F,A,C]2!ped-up! | %14
!ped! C,2 [F,A,E]2 [F,A,E]2!ped-up! |!ped! F,,2 [F,A,E]2 [F,A,E]2!ped-up! | %16
!ped! A,,2 [F,CE]2 [F,CE]2!ped-up! |!ped! F,,2 [F,CE]2 [F,CE]2!ped-up! | %18
!ped! B,,2 [F,B,D]2 [F,B,D]2!ped-up! |!ped! F,,2 [F,B,D]2 [F,B,D]2!ped-up! | %20
!ped! B,,2 [F,B,D]2 [F,B,D]2!ped-up! |!ped! F,,2 [F,B,D]2 [F,B,D]2!ped-up! | %22
!ped! B,,2 [F,B,D]2 [F,B,D]2!ped-up! |!ped! F,,2 [F,B,D]2 [F,B,D]2!ped-up! | %24
!ped! G,,2 [G,DF]2 [G,DF]2!ped-up! |!ped! =B,,2 [G,DF]2 [G,DF]2!ped-up! | %26
!ped! C,2 [G,CE]2 [G,CE]2!ped-up! |!ped! E,2 [G,CE]2 [G,CE]2!ped-up! | %28
!ped! z2 [G,B,^C]2 [G,B,C]2!ped-up! |!ped! =E,2 [G,B,^C]2 [G,B,C]2!ped-up! | %30
!ped! F,2 [B,D]2 [B,D]2!ped-up! |!ped! F,2 [B,D]2 [B,D]2!ped-up! | %32
!ped! C,2 [G,B,C=E]2 [G,B,CE]2!ped-up! |!ped! F,,2 [F,C_E]2 [F,A,E]2!ped-up! |1 %34
!ped! [B,,B,]2 F,2 D,2 | B,,2!ped-up! z2 z2 :|2 [B,,B,]2 F,2 D,2 | B,,2 z2 z2 |: z2 [G,C]2 [G,C]2 | %39
 z2 [A,CE]2 [A,CE]2 | B,,2 [F,B,D]2 [F,B,D]2 | F,,2 [F,B,D]2 [F,B,D]2 | C,2 [F,CE]2 [F,CE]2 | %43
 F,,2 [F,A,E]2 [F,A,E]2 | B,,2 [F,B,D]2 [F,B,D]2 | D,2 [F,B,D]2 [F,B,D]2 | z2 [G,C]2 [G,C]2 | %47
 z2 [A,CE]2 [A,CE]2 | B,,2 [F,B,D]2 [F,B,D]2 | F,,2 [F,B,D]2 [F,B,D]2 | A,,2 [A,DF]2 [A,DF]2 | %51
 A,,2 [A,^CG]2 [A,CG]2 | [DF]2 [B,,B,]2 [A,,A,]2 | !>![D,,D,]2 z2 z2 | z2 [G,C]2 [G,C]2 | %55
 z2 [A,CE]2 [A,CE]2 | B,,2 [F,B,D]2 [F,B,D]2 | F,,2 [F,B,D]2 [F,B,D]2 | C,2 [F,CE]2 [F,CE]2 | %59
 F,,2 [F,A,E]2 [F,A,E]2 | B,,2 [F,B,D]2 [F,B,D]2 | D,2 [F,B,D]2 [F,B,D]2 | z2 [G,C]2 [G,C]2 | %63
 z2 [G,B,^C]2 [G,B,C]2 | F,2 [B,D]2 [B,D]2 | F,2 [B,D]2 [B,D]2 | C,2 [G,B,C=E]2 [G,B,CE]2 | %67
 F,,2 [F,A,_E]2 [F,A,E]2 |1 [B,,B,]2 F,2 D,2 | B,,2 z2 z2 :|2 [B,,B,]2 F,2 D,2 | B,,2 z2 z2 |: %72
 G,,2 [D,G,B,]2 [D,G,B,]2 | D,,2 [D,G,B,]2 [D,G,B,]2 | G,,2 [D,G,B,]2 [D,G,B,]2 | %75
 B,,2 [D,G,B,]2 [D,G,B,]2 | C,2 [E,G,C]2 [E,G,C]2 | C,2 [E,G,C]2 [E,G,C]2 | %78
 G,,2 [D,G,B,]2 [D,G,B,]2 | D,,2 [D,G,B,]2 [D,G,B,]2 | D,2 [^F,CD]2 [F,CD]2 | %81
 D,,2 [^F,CD]2 [F,CD]2 | G,,2 [G,B,D]2 [G,B,D]2 | B,,2 [G,B,D]2 [G,B,D]2 | %84
 [E,,E,]2 [G,B,E]2 [G,B,E]2 | [E,,E,]2 [G,B,E]2 [E,,E,]2 | [D,,D,]2 z2 [E,,E,]2 | [D,,D,]2 z2 z2 | %88
 G,,2 [D,G,B,]2 [D,G,B,]2 | D,,2 [D,G,B,]2 [D,G,B,]2 | G,,2 [D,G,B,]2 [D,G,B,]2 | %91
 B,,2 [D,G,B,]2 [D,G,B,]2 | C,2 [E,G,C]2 [E,G,C]2 | C,2 [E,G,C]2 [E,G,C]2 | %94
 G,,2 [D,G,B,]2 [D,G,B,]2 | G,,2 [D,G,B,]2 [D,G,B,]2 | C,2 [E,G,C]2 [E,G,C]2 | %97
 C,2 [E,G,C]2 [E,G,C]2 | G,,2 [D,G,B,]2 [D,G,B,]2 | D,,2 [D,G,B,]2 [D,G,B,]2 | %100
 A,,2 [^F,CD]2 [F,CD]2 | D,,2 [^F,CD]2 [F,CD]2 |1 [G,B,D]2 [E,,E,]2 [D,,D,]2 | [G,,,G,,]2 z2 z2 :|2 %104
 [G,B,D]6 | !>![F,,F,]6 |: [E,,E,]6 | [E,,E,]6 | [B,,,B,,]6 | [D,,D,]6 | [E,,E,]6 | [E,,E,]6 | %112
 [B,,,B,,]6 | [D,,D,]6 | [E,,E,]6 | [E,,E,]6 | [D,,D,]6 | [_D,,_D,]6 | [C,,C,]6 | %119
 [G,,G,]4 [C,,C,]2 | [F,,F,]2 C,2 A,,2 | F,,2 z2 z2 | [E,,E,]6 | [E,,E,]6 | [B,,,B,,]6 | [D,,D,]6 | %126
 [E,,E,]6 | [E,,E,]6 | [B,,,B,,]6 | [D,,D,]6 | z2 [G,B,E]2 [G,B,E]2 | z2 [=E,G,B,^C]2 [E,G,B,C]2 | %132
 z2 [F,B,D]2 [F,B,D]2 | G,,2 [G,=B,]2 [G,B,]2 | C,2 [G,_B,C]2 [G,B,C]2 | F,,2 [F,A,]2 [F,A,]2 |1 %136
 [B,,B,]2 F,2 D,2 | B,,2 z2 z2 :|2 [B,,B,]2 [D,,D,]2 [E,,E,]2 | [F,,F,]2 [G,,G,]2 [A,,A,]2 || %140
 [B,,B,]2 [_G,_G]2 [F,F]2 | [_D,_D]2 [B,,B,]2 [_G,,_G,]2 | [F,,F,]2 z2 [F,,F,]2 | [B,,B,]2 z2 z2 | %144
 !arpeggio![B,DF]2 z2 z2 | [B,,B,]2 z2 z2 | !fermata![B,,_G,]6 || %147
{/!fermata![B,,F,]} !fermata![B,,F,]6 |] %148
V:3
 x6 | x6 | x6 | x6 |: x6 | x6 | B6- | B2 z2 z2 | x6 | x6 | E6- | E2 z2 z2 | x6 | x6 | A6- | %15
 A2 z2 z2 | x6 | x6 | D6- | D2 z2 z2 | x6 | x6 | B6- | B2 z2 z2 | x6 | x6 | e6- | e2 z2 z2 | x6 | %29
 x6 | F6- | F2 z2 z2 | x6 | x6 |1 B6- | B2{/^c} d2{/c} d2 :|2 B6- | B2 x2 x2 |: x6 | x6 | x6 | x6 | %42
 x6 | x6 | x6 | x6 | x6 | x6 | x6 | x6 | x6 | x6 | x6 | x6 | x6 | x6 | x6 | x6 | x6 | x6 | x6 | %61
 x6 | x6 | x6 | x6 | x6 | x6 | x6 |1 x6 | x6 :|2 z2 de=ef | x6 |: x6 | x6 | x6 | x6 | x6 | x6 | %78
 x6 | x6 | x6 | x6 | x6 | x6 | x6 | x6 | x2 x2 [^cg]2 | x6 | x6 | x6 | x6 | x6 | x6 | x6 | x6 | %95
 x6 | x6 | x6 | x6 | x6 | x6 | x6 |1 x6 | x6 :|2 x6 | x6 |: z2 [EG]2 [EG]2 | z2 [E_G]2 [EG]2 | %108
 z2 [B,D]2 [B,D]2 | z2 [B,D]2 [B,D]2 | z2 [EG]2 [EG]2 | z2 [E_G]2 [EG]2 | z2 [FB]2 [FB]2 | %113
 z2 [FB]2 [FB]2 | z2 [EG]2 [EG]2 | z2 [E_G]2 [EG]2 | z2 [B,D]2 [B,D]2 | z2 [B,_D]2 [B,D]2 | %118
 z2 [CF]2 [FA]2 | z2 [F=B]2 [G_B]2 | z2 [Ac]2 [Ac]2 | [Ac]2 x2 x2 | z2 [EG]2 [EG]2 | %123
 z2 [E_G]2 [EG]2 | z2 [B,D]2 [B,D]2 | z2 [B,D]2 [B,D]2 | z2 [EG]2 [EG]2 | z2 [E_G]2 [EG]2 | %128
 z2 [FB]2 [FB]2 | z2 [FB]2 [FB]2 | x6 | x6 | x6 | x6 | x6 | x6 |1 x6 | x6 :|2 x6 | x6 || x6 | x6 | %142
 x6 | x6 | x6 | x6 | x6 || x6 |] %148
V:4
 x6 | x6 | x6 | x6 |: x6 | x6 | x6 | x6 | x6 | x6 | x6 | x6 | x6 | x6 | x6 | x6 | x6 | x6 | x6 | %19
 x6 | x6 | x6 | x6 | x6 | x6 | x6 | x6 | x6 | =E,6 | x6 | x6 | x6 | x6 | x6 |1 x6 | x6 :|2 x6 | %37
 x6 |: E,6 | F,6 | x6 | x6 | x6 | x6 | x6 | x6 | E,6 | F,6 | x6 | x6 | x6 | x6 | x6 | x6 | E,6 | %55
 F,6 | x6 | x6 | x6 | x6 | x6 | x6 | E,6 | =E,6 | x6 | x6 | x6 | x6 |1 x6 | x6 :|2 x6 | x6 |: x6 | %73
 x6 | x6 | x6 | x6 | x6 | x6 | x6 | x6 | x6 | x6 | x6 | x6 | x6 | x6 | x6 | x6 | x6 | x6 | x6 | %92
 x6 | x6 | x6 | x6 | x6 | x6 | x6 | x6 | x6 | x6 |1 x6 | x6 :|2 x6 | x6 |: x6 | x6 | x6 | x6 | x6 | %111
 x6 | x6 | x6 | x6 | x6 | x6 | x6 | x6 | x6 | x6 | x6 | x6 | x6 | x6 | x6 | x6 | x6 | x6 | x6 | %130
 [E,,E,]6 | [=E,,=E,]6 | [F,,F,]4 x2 | x6 | x6 | x6 |1 x6 | x6 :|2 x6 | x6 || x6 | x6 | x6 | x6 | %144
 x6 | x6 | x6 || x6 |] %148

